img/vector/twitter.svg

<svg width="13" height="10" viewBox="0 0 13 10" fill="none" xmlns="http://www.w3.org/2000/svg">
<path d="M12.9672 1.3125C12.5297 1.5 12.0298 1.625 11.5298 1.6875C12.0298 1.375 12.4672 0.875002 12.6547 0.312502C12.1547 0.625002 11.6548 0.812502 11.0298 0.937502C10.5924 0.437502 9.90494 0.125 9.2175 0.125C7.84262 0.125 6.71772 1.25 6.71772 2.625C6.71772 2.8125 6.71772 2.99999 6.78022 3.18749C4.7179 3.06249 2.84307 2.0625 1.59318 0.562498C1.4057 0.937498 1.28071 1.375 1.28071 1.8125C1.28071 2.6875 1.71817 3.4375 2.40561 3.875C1.96815 3.875 1.59318 3.75 1.28071 3.5625C1.28071 4.75 2.15563 5.81249 3.28053 5.99999C3.09304 6.06249 2.84307 6.0625 2.59309 6.0625C2.40561 6.0625 2.28062 6.06249 2.09314 5.99999C2.40561 6.99999 3.34303 7.75 4.46793 7.75C3.59301 8.4375 2.5306 8.81249 1.34321 8.81249C1.15572 8.81249 0.968239 8.8125 0.718262 8.75C1.84316 9.4375 3.15554 9.875 4.59291 9.875C9.2175 9.875 11.7173 6.0625 11.7173 2.75V2.4375C12.2172 2.25 12.6547 1.8125 12.9672 1.3125Z" fill="#8253D8"/>
</svg>

<svg width="13" height="10" fill="none" xmlns="http://www.w3.org/2000/svg"><path d="M12.967 1.313a5.404 5.404 0 0 1-1.437.375c.5-.313.937-.813 1.125-1.375-.5.312-1 .5-1.625.625A2.459 2.459 0 0 0 9.217.125a2.507 2.507 0 0 0-2.5 2.5c0 .188 0 .375.063.562A7.366 7.366 0 0 1 1.593.562a2.845 2.845 0 0 0-.312 1.25c0 .875.437 1.625 1.125 2.063-.438 0-.813-.125-1.125-.313 0 1.188.875 2.25 2 2.438-.188.062-.438.063-.688.063-.187 0-.312 0-.5-.063.313 1 1.25 1.75 2.375 1.75-.875.688-1.937 1.062-3.125 1.062-.187 0-.375 0-.625-.062 1.125.688 2.438 1.125 3.875 1.125 4.624 0 7.124-3.813 7.124-7.125v-.313c.5-.187.938-.624 1.25-1.124Z" fill="#8253D8"/></svg>
